!!!COM: Schubert, Franz
!!!CNT: Deutscher
!!!TXO: Deutsch
!!!OTL: "Der Mueller und der Bach"
!!!OPR: Die schoene Muellerin
!!!LYR: Mu2ller, Wilhelm
!!!OPS: Opus 25
!!!ONM: No. 19
!!!ODT: 1823/
!!NB: Vocal melody only encoded.
**kern	**silbe
*clefG2	*
*k[b-e-]	*
*M3/8	*
*MM[massig]	*
=3	=3
{8.dd	{Wo
16dd	ein
16cc	treu-
16b-	-es
=4	=4
16a	Her-
16dd	|
8.a	-ze
16dd	in
=5	=5
8.ff#	Lie-
16d	|
16cc	-be
16a	ver-
=6	=6
4b-}	-geht,}
16r	.
{16b-	{da
=7	=7
4dd	wel-
16cc	-ken
16b-	die
=8	=8
16a-	Li-
16ee-	|
8.a-	-lien
16g	auf
=9	=9
16f#	je-
16an	|
16dd	|
16cc	|
16b-	-dem
16an	|
=10	=10
4g}	Beet;}
16r	.
{16dd	{da
=11	=11
4dd	muss
16ee-	in
16ff	die
=12	=12
16ee-	Wol-
16dd	|
8.cc	-ken
16b-	der
=13	=13
8.a	Voll-
16ee-	|
16dd	-mond
16cc#	|
=14	=14
4dd}	geh'n}
16r	.
{16dd	{da-
=15	=15
4dd	-mit
16cc	sei-
16b-	-ne
=16	=16
16ee-	Thra2-
16cc	|
8.a-	-nen
16a-	die
=17	=17
16g	Men-
16an	|
16b-	-schen
16an	|
16b-	nicht
16g	|
=18	=18
[4.dd	seh'n;
=19	=19
8dd]}	|}
8.r	.
{16dd	{da
=20	=20
4dd	hal-
16cc	-ten
16b-	die
=21	=21
16a	Eng-
16dd	|
8.a	-lein
16dd	die
=22	=22
8.ff#	Au-
16dd	|
16cc	-gen
16a	sich
=23	=23
4b-}	zu}
16r	.
{16dd	{und
=24	=24
4dd	schluch-
16cc	-zen
16b-	und
=25	=25
16a-	sin-
16ee-	|
8.a-	-gen
16g	die
=26	=26
16f#	See-
16an	|
16dd	|
16cc	|
16b-	-le
16an	zur
=27	=27
4g}	Ruh}
8r	.
=28	=28
4r	.
16r	.
{16bn	{Und
=29	=29
*k[bnenf#]	*
4b	wenn
16a	sich
16g	die
=30	=30
16g	Lie-
16ee	|
8.ee	-be
16ee	dem
=31	=31
8ee	Schmerz
8a	|
16cc#	ent-
16b	|
=32	=32
4a}	-ringt,}
16r	.
{16dd	{ein
=33	=33
8ccn	Stern-
8.a	-lein,
16dd	ein
=34	=34
16b	neu-
16dd	|
8.gg	-es,
16ee	am
=35	=35
16dd	Him-
16cc#	|
16ee	-mel
16dd	|
16cc#	er-
16dd	|
=36	=36
4b}	-blinkt,}
16r	.
{16dd	{ein
=37	=37
8cc	Stern-
8.a	-lein,
16dd	ein
=38	=38
16b	neu-
16dd	|
8.gg	-es,
16g	am
=39	=39
16g	Him-
16b	|
16.dd	|
64ee	|
64dd	|
16cc	-mel
16f#	er-
=40	=40
4g}	-blinkt;}
16r	.
{16dd	{da
=41	=41
8ee	sprin-
8.a	-gen
16ee	drei
=42	=42
16ee	Ro-
16ff#	|
8.dd	-sen
16dd	halb
=43	=43
16dd	roth
16cc#	|
16b	und
16a	|
16b	halb
16cc#	|
=44	=44
8cc#	weiss,
8dd}	|}
16r	.
{16dd	{die
=45	=45
8ee	wel-
8.a	-ken
16ee	nicht
=46	=46
16gg	wie-
16ff#	|
8.dd	-der,
16dd	aus
=47	=47
16dd	Dor-
16cc#	|
16ee	|
16cc#	|
16b	-nen-
16a	|
=48	=48
8.dd	-reis;
16ee}	|}
{16dd	{und
16ccn	die
=49	=49
8.b	En-
16a	-ge-
8g	-lein
=50	=50
16g	schnei-
16e	|
8.ee	-den
16ee	die
=51	=51
16ee	Flu2-
16a	|
8a	-gel
16cc#	sich
16b	|
=52	=52
4a}	ab}
16r	.
{16dd	{und
=53	=53
8ccn	geh'n
8.a	al-
16dd	-le
=54	=54
16b	Mor-
16dd	|
8.gg	-gen
16ee	zur
=55	=55
16dd	Er-
16cc#	|
16ee	-de
16dd	|
16cc#	her-
16dd	|
=56	=56
4b}	-ab,}
16r	.
{16dd	{und
=57	=57
8cc	geh'n
8.a	al-
16dd	-le
=58	=58
16b	Mor-
16dd	|
8.gg	-gen
16g	zur
=59	=59
(16g	Er-
16b	|
16.dd	|
64ee	|
64dd)	|
16cc#	-de
16f#	her-
=60	=60
4g}	-ab.}
8r	.
=61	=61
4r	.
16r	.
{16dd	{Ach,
=62	=62
8.dd	Ba2ch-
16dd	-lein,
16cc	lieb-
16b-	-es
=63	=63
16a	Ba2ch-
16dd	|
8.a	-lein,
16dd	du
=64	=64
8.ff#	meinst
16dd	|
16cc	es
16a	so
=65	=65
4b-}	gut,}
16r	.
{16dd	{ach,
=66	=66
8.dd	Ba2ch-
16dd	-lein,
16cc	a-
16b-	-ber
=67	=67
16ee-	weisst
16cc	|
8.a-	du
16a-	wie
=68	=68
(16g	Lie-
16an	|
16.b-	|
64cc	|
64b-	|
16an)	|
16g	-be
=69	=69
[4.dd	thut?
=70	=70
4dd]}	|}
16r	.
{16dd	{Ach,
=71	=71
4ffn	un-
16ee-	-ten,
16dd	da
=72	=72
16ee-	un-
16dd	|
8.cc	-ten
16b-	die
=73	=73
8.a	ku2h-
16ee-	|
16dd	-le
16cc	|
=74	=74
[4dd	Ruh,
16dd]}	|}
{16dd	{ach,
=75	=75
8.dd	Ba2ch-
16dd	-lein,
16cc	lieb-
16bn	-es
=76	=76
16een	Ba2ch-
16cc	|
8.a	-lein,
16g	so
=77	=77
16f#	sin-
16a	|
16dd	-ge
16cc#	|
16ee	nur
16dd	|
=78	=78
4b}	zu,}
16r	.
{16dd	{ach,
=79	=79
8.ee	Ba2ch-
16dd	-lein,
16cc	lieb-
16b-	-es
=80	=80
16ee	Ba2ch-
16cc	|
8.a	-lein,
16g	so
=81	=81
16f#	sin-
16a	|
16dd	-ge-
16cc#	|
16ee	-nur
16dd	|
=82	=82
4g}	zu!}
8r	.
*-	*-
